!!!COM: Fux, Johann Joseph
!!!OMD: Gradus ad Parnassum Exercise
!!!YEC: CC0 1.0 Universal (Public Domain). Mark Gotham and FourScoreAndMore.org waive all rights to this document.
**kern	**kern	**kern
*part3	*part2	*part1
*staff3	*staff2	*staff1
*I"3	*I"2	*I"1
*I'Pno	*I'Pno	*I'Pno
!!LO:LB:g=z
*clefF4	*clefGv2	*clefG2
*k[]	*k[]	*k[]
!!LO:TX:omd:t=
*M4/4	*M4/4	*M4/4
=231	=231	=231
!	!	!LO:TX:a:t=Fig. 125; Species&colon; 2; Modal final&colon; e; Cantus firmus&colon; 3
1E	2r	1e
.	2B\	.
=232	=232	=232
1C	2c\	1e
.	2B\	.
=233	=233	=233
1D	2A/	1f
.	2F/	.
=234	=234	=234
1C	2E/	1e
.	2G/	.
=235	=235	=235
1AA	2A/	1f
.	2B\	.
=236	=236	=236
1A	2c\	1e
.	2A/	.
=237	=237	=237
1G	2B\	1g
.	2d\	.
=238	=238	=238
1E	2e\	1g
.	2d\	.
=239	=239	=239
1F	2c\	1a
.	2A/	.
=240	=240	=240
1E	1B	1g#X
==	==	==
*-	*-	*-
!!!software: music21 v.9.7.1
!!!software: music21 v.9.7.1
!!!software: MuseScore 3.4.2
!!!RDF**kern: > = above
!!!RDF**kern: < = below
